X: 515
T: Cevr-i Hicrin Arttırır...
C: Bülbülî Salih Efendi
O: Turkey
F: http://compmusic.upf.edu/node/140
N: hicaz--sarki--agiraksak--cevr-i_hicrin--bulbuli_salih_efendi
N: makam= hicaz
N: form= sarki
N: usul= agiraksak = 9/4
M: 9/4
L: 1/16
K: C _7/8B ^f ^c 
Q: 1/4=78
%%MIDI tuningsystem comma53
^3/4c2d6 d4 e^3/4fed cdcB A3/2G/AB c6d2 cBA2  | \
w:  ARANAĞME  | 
A2g4^2/4fe d2f4ed d2a2 g2^3/4f2 efef ag=fe d4  | 
w:   | 
^3/4cded e2dc Bcdc d2cB ABcB c2BA dcde dcBA G4  | 
w:   | 
A2B4A2 B2A2 g^3/4fed ^3/4c3d cBBA A4 GABc d4  | 
w:   | 
^3/4c2d6 d4 e^3/4fed cdcB A3/2G/AB c6d2 cBA2  | \
w:  ARANAĞME  | 
A2g4^2/4fe d2f4ed d2a2 g2^3/4f2 efef ag=fe d4  | 
w:   | 
^3/4cded e2dc Bcdc d2cB ABcB c2BA dcde dcBA G4  | 
w:   | 
A2B4A2 B2A2 g^3/4fed ^3/4c3d cBBA A4 edcB A4  | 
w:   | 
G2A4G2 =f3/2e/de d2^3/4c2 dcBc B2A2 A8 z4  | \
w:  Cevr_ *  *  i  *  *  *  *  *  hic *  *  *  *  *  rin   | 
A2{B}AG A2B2 ^3/4c2d2 e2=f2 e2de d2c2 d12  | 
w:  art *  *  *  *  *  tı *  *  *  rır  *  *  *  *  fer  | 
g2^2/4fe f4 d2{e}d^3/4c d4 B2BA G4 e2g2 =f2e2 d2e2  | \
w:  yâ *  *  *  *  *  *  *  *  *  *  *  *  *  *  *  *  dı  | 
^3/4c4 d8 A4 B3A B2c2 d6e=f eddc  | 
w:  mı   *  SAZ  | 
d8 z2g2 ^3/4f2g2 gffe {f}e4 e2{g}=fe d4 a4  | \
w:  *  Sen *  den  ar *  *  *  *  *  tık   | 
ag^3/4fe d^3/4cBA A2e2 d2{e}dc ^c2B2 B2A2 B2^3/4c2 B4 ABcd  | 
w:  *  *  *  *  *  *  *  *  *  Al *  *  lah  *  al *  *  *  sın  *  *  SAZ  | 
e2e2 d2^3/4c2 c2d2 c2B2 A2AG A2B2 c2d2 c3B B2{c}BA  | \
w:  *  dâ *  *  *  *  *  *  *  *  *  *  *  *  *  *  *  dı  | 
A6B2 ^3/4c2d2 e2^3/4f2 e2de d2c2 d6e=f eddc  | 
w:  mı   SAZ  | 
d8 z2g2 ^3/4f2g2 gffe {f}e4 e2{g}=fe d4 a4  | \
w:  *  Sen *  den  ar *  *  *  *  *  tık   | 
ag^3/4fe d^3/4cBA A2e2 d2{e}dc ^c2B2 B2A2 B2^3/4c2 B4 ABcd  | 
w:  *  *  *  *  *  *  *  *  *  Al *  *  lah  *  al *  *  *  sın  *  *  SAZ  | 
e2e2 d2^3/4c2 c2d2 c2B2 A2AG A2B2 c2d2 c3B B2{c}BA  | \
w:  *  dâ *  *  *  *  *  *  *  *  *  *  *  *  *  *  *  dı  | 
A8 z4 ^3/4f2g2 a3g f2g2 a6g2 c'2ba  | 
w:  mı   SAZ  | 
a8 z2g4a2 a8 a12  | a2{=c'}=ba g^3/4fg4.a4b2 a2ag f2a2 g2a2 g4 f4  | 
w:  *  Kır dın_ in cit  |  *  *  *  *  *  *  *  tin  dil_ i  *  *  *  *  nâ  | 
a3g ^3/4f4 g3^1/4f e4 =f3e d4 ^3/4f2g2 a2=b2 g2b2  | \
w:  şâ *  *  *  *  *  *  *  *  *  *  *  *  dı  | 
{=b}a12 a2b2 a3g ^3/4f2g2 a6g2 =c'2ba  | 
w:  *  mı   SAZ  | 
a8 z2=b2 a2b2 g3^2/4f f3e e4 f4 g4  | \
w:  *  Kır *  dın_ in *  *  *  cit  | 
a3g ^1/4fed2 z2g2 =f2e2 e3d d2{e}d^3/4c d12  | 
w:  *  *  *  *  *  tin  *  dil_ i  *  *  *  *  *  nâ  | 
g2^2/4fe f4 d2{e}d^3/4c d4 B2BA G4 e2g2 =f2e2 d2e2  | \
w:  şâ *  *  *  *  *  *  *  *  *  *  *  *  *  *  *  *  dı  | 
^3/4c4 d8 A4 B3A B2c2 d6e=f eddc  | 
w:  mı   *  SAZ  | 
d8 z2g2 ^3/4f2g2 gffe {f}e4 e2{g}=fe d4 a4  | \
w:  *  Sen *  den  ar *  *  *  *  *  tık   | 
ag^3/4fe d^3/4cBA A2e2 d2{e}dc ^c2B2 B2A2 B2^3/4c2 B4 ABcd  | 
w:  *  *  *  *  *  *  *  *  *  Al *  *  lah  *  al *  *  *  sın  *  *  SAZ  | 
e2e2 d2^3/4c2 c2d2 c2B2 A2AG A2B2 c2d2 c3B B2{c}BA  | \
w:  *  dâ *  *  *  *  *  *  *  *  *  *  *  *  *  *  *  dı  | 
A6B2 ^3/4c2d2 e2^3/4f2 e2de d2c2 d6e=f eddc  | 
w:  mı   SAZ  | 
d8 z2g2 ^3/4f2g2 gffe {f}e4 e2{g}=fe d4 a4  | \
w:  *  Sen *  den  ar *  *  *  *  *  tık   | 
ag^3/4fe d^3/4cBA A2e2 d2{e}dc ^c2B2 B2A2 B2^3/4c2 B4 ABcd  | 
w:  *  *  *  *  *  *  *  *  *  Al *  *  lah  *  al *  *  *  sın  *  *  SAZ  | 
e2e2 d2^3/4c2 c2d2 c2B2 A2AG A2B2 c2d2 c3B B2{c}BA  | \
w:  *  dâ *  *  *  *  *  *  *  *  *  *  *  *  *  *  *  dı  | 
A8 z4 |
w:  mı    | 


